X:0635
T:The Nymph
M:2/4
L:1/8
Q:1/4=132
I: :: :: ::
Z:Jack Campin * www.campin.me.uk * 2009
K:D
d(d/c/) dA|dfaf|gedc|(d/c/d/e/) dA|d(d/c/) dA|dfaf|gedc         |d2d2:|
gf      f2|edd2|cdef|(g/a/g/f/) e2|gf      f2|edd2|eg (f/e/d/c/)|d2d2:|
f3       a|d3 f|efge| dcBA        |d2      ef|g3 f|fedc         |d2d2:|

